dist/images/partners/gazprom-onutz.svg

<svg width="125" height="62" viewBox="0 0 125 62" fill="none" xmlns="http://www.w3.org/2000/svg">
<path d="M71.9925 18.8496H81.8609V39.8583H77.6034V21.452H76.2593V39.8583H71.9925V18.8496ZM88.609 39.8583H84.3515V18.8496H91.0432C94.0319 18.8496 94.2106 21.1303 94.2106 22.635V28.9943C94.2106 30.4707 94.0319 32.7797 91.0432 32.7797H88.609V39.8583ZM88.609 30.3949H89.1636C89.6147 30.3949 89.953 29.9974 89.953 29.3445V22.5025C89.953 21.8495 89.6147 21.452 89.1636 21.452H88.609V30.3949ZM63.0545 39.8583H66.5884C69.5771 39.8583 69.7556 37.5776 69.7556 36.0729V31.8806C69.7556 31.1331 69.7556 28.9659 66.8703 29.0416V28.824C67.2547 28.8713 67.6449 28.831 68.0118 28.706C68.3786 28.581 68.713 28.3746 68.9899 28.102C69.267 27.8295 69.4796 27.4977 69.6121 27.1313C69.7447 26.7648 69.7937 26.3731 69.7556 25.985V22.6065C69.7556 21.1303 69.5771 18.8212 66.5884 18.8212H63.0545C60.0752 18.8212 59.8966 21.1019 59.8966 22.6065V25.578H64.1541V22.1429C64.1489 22.0523 64.1624 21.9617 64.1938 21.8767C64.2252 21.7919 64.2739 21.7144 64.3367 21.6494C64.3994 21.5844 64.475 21.5333 64.5584 21.4993C64.6419 21.4654 64.7314 21.4492 64.8215 21.452C64.911 21.452 64.9999 21.47 65.0825 21.5047C65.1653 21.5396 65.2403 21.5907 65.3033 21.6549C65.3663 21.7192 65.4159 21.7954 65.4494 21.8792C65.4828 21.9629 65.4994 22.0525 65.4982 22.1429V26.3257C65.4982 27.6127 65.0658 27.8871 63.8534 27.8871H62.0301V30.1962H63.7593C65.3477 30.1962 65.4699 30.9249 65.4699 31.5778V36.4705C65.4711 36.5607 65.4546 36.6502 65.4211 36.734C65.3877 36.8179 65.338 36.8941 65.2751 36.9583C65.2121 37.0226 65.1371 37.0737 65.0544 37.1084C64.9717 37.1433 64.8829 37.1612 64.7932 37.1612C64.7033 37.164 64.6137 37.148 64.5302 37.1139C64.4467 37.08 64.3712 37.0288 64.3085 36.9639C64.2456 36.8989 64.1971 36.8214 64.1657 36.7364C64.1342 36.6515 64.1206 36.5609 64.126 36.4705V32.5147H59.8966V36.1202C59.8966 37.5871 60.0752 39.8583 63.0545 39.8583ZM47.4154 39.8583L49.6335 18.8496H56.3346L58.5527 39.8583H54.3797L53.985 34.2749H51.9737L51.579 39.8583H47.4154ZM52.1147 31.9658H53.8158L53.1015 21.452H52.8572L52.1147 31.9658ZM96.2876 36.1109V22.6065C96.2876 21.1303 96.4756 18.8212 99.4549 18.8212H102.989C105.968 18.8212 106.156 21.1019 106.156 22.6065V36.1202C106.156 37.5871 105.968 39.9056 102.989 39.9056H99.4549C96.4661 39.8583 96.2782 37.5871 96.2782 36.1202L96.2876 36.1109ZM100.554 36.461C100.549 36.5514 100.563 36.6421 100.594 36.727C100.626 36.8119 100.674 36.8894 100.737 36.9544C100.8 37.0193 100.875 37.0705 100.959 37.1044C101.042 37.1385 101.132 37.1545 101.222 37.1517C101.311 37.1505 101.398 37.1317 101.48 37.0963C101.562 37.0609 101.636 37.0097 101.698 36.9455C101.76 36.8814 101.808 36.8056 101.841 36.7225C101.874 36.6393 101.89 36.5504 101.889 36.461V22.1429C101.89 22.0534 101.874 21.9645 101.841 21.8814C101.808 21.7982 101.76 21.7224 101.698 21.6583C101.636 21.5941 101.562 21.5429 101.48 21.5075C101.398 21.472 101.311 21.4532 101.222 21.452C101.132 21.4492 101.042 21.4654 100.959 21.4993C100.875 21.5333 100.8 21.5844 100.737 21.6494C100.674 21.7144 100.626 21.7919 100.594 21.8767C100.563 21.9617 100.549 22.0523 100.554 22.1429V36.461ZM43.6654 21.452H47.5282V18.8496H39.3985V39.8583H43.6654V21.452ZM45.1973 56.6085C45.2977 56.61 45.3972 56.5907 45.4898 56.5518C45.5824 56.5129 45.666 56.4554 45.7357 56.3825C45.8052 56.3098 45.8593 56.2235 45.8944 56.1288C45.9295 56.0342 45.945 55.9333 45.9398 55.8326V51.4225C45.9427 51.3249 45.9252 51.2278 45.8886 51.1372C45.8518 51.0468 45.7967 50.9651 45.7268 50.8974C45.6569 50.8297 45.5737 50.7774 45.4825 50.7439C45.3913 50.7105 45.2942 50.6967 45.1973 50.7033C45.101 50.6967 45.0042 50.7104 44.9135 50.7439C44.8228 50.7774 44.7402 50.8298 44.6709 50.8977C44.6017 50.9657 44.5476 51.0475 44.5119 51.138C44.4763 51.2284 44.4601 51.3254 44.4643 51.4225V55.8326C44.4578 55.9329 44.472 56.0336 44.5061 56.1282C44.5401 56.2228 44.5932 56.3092 44.6621 56.3822C44.7309 56.455 44.8141 56.5127 44.9062 56.5518C44.9983 56.5907 45.0975 56.61 45.1973 56.6085ZM23.2237 23.5529C22.6633 18.91 23.0568 14.2008 24.3797 9.7174C25.4763 6.31215 27.0424 3.0788 29.0319 0.112061C31.328 3.45434 33.0324 7.17152 34.0695 11.0991C35.1979 15.3597 35.438 19.8093 34.7744 24.1679C34.0296 29.3558 32.0676 34.29 29.0507 38.5618C27.6627 36.6599 26.4989 34.6021 25.5828 32.4295C24.4413 29.5781 23.6492 26.5973 23.2237 23.5529ZM30.7425 29.8839C30.6788 27.5772 30.1039 25.314 29.0602 23.2595C27.9051 25.3762 27.3005 27.7526 27.3027 30.1678C27.318 32.5953 27.911 34.9837 29.0319 37.1329C30.2155 34.9062 30.8049 32.4086 30.7425 29.8839ZM24.9718 26.5338C24.9449 23.7422 25.2 20.9551 25.7331 18.2156C26.4282 15.1316 27.5314 12.1556 29.0131 9.36726C30.5108 12.159 31.6267 15.1417 32.3308 18.2344C32.8934 20.9373 33.1333 23.6981 33.0451 26.4582C33.4467 24.5566 33.6608 22.6199 33.6842 20.676C33.7305 17.4253 33.3159 14.1846 32.453 11.0517C31.629 8.28102 30.4739 5.62127 29.0131 3.13088C27.5882 5.67324 26.4501 8.36815 25.6203 11.1653C24.9703 13.5516 24.5733 16.0005 24.436 18.471C24.3501 21.1698 24.5295 23.8706 24.9718 26.5338ZM119.417 18.8496L116.598 33.622L113.882 18.8496H108.336V39.8583H112.603V26.6853H112.782L114.944 39.8583H118.355L120.545 26.6758H120.696V39.8583H125V18.8496H119.417ZM39.3985 46.3975H124.925V60.8954H39.3985V46.3975ZM116.203 57.9996H120.216V59.7882H122.294V56.353H121.842V49.3217H119.718V56.372H118.327V49.3217H116.203V57.9996ZM98.2143 50.9494H99.8873V57.9996H101.833V50.9494H103.384V49.3217H98.2143V50.9494ZM79.5394 49.3217L81.5226 56.1732C81.4882 56.2741 81.4191 56.3592 81.3277 56.4131C81.2362 56.4669 81.1286 56.4859 81.0244 56.4665C80.8441 56.473 80.6637 56.4539 80.4887 56.4098V57.8388C80.821 58.0046 81.1897 58.0828 81.5602 58.0659C83.0451 58.0659 83.5527 57.659 84.0319 55.9744L85.9117 49.2744H83.7218L82.8948 53.0597C82.7954 53.6552 82.7265 54.2553 82.688 54.8578C82.6316 53.9114 82.6316 53.3815 82.5752 53.0597L81.7669 49.3217H79.5394ZM61.1748 57.9996H63.2989V54.3089H64.6898V57.9996H66.814V49.3217H64.6898V52.6718H63.2989V49.3217H61.1748V57.9996ZM42.3778 55.4635C42.3778 57.1952 43.3177 58.2078 45.1973 58.2078C47.0771 58.2078 48.0169 57.1952 48.0169 55.4635V51.5645C48.0169 50.2112 47.1617 49.1041 45.1973 49.1041C43.2331 49.1041 42.3215 50.1829 42.3215 51.555L42.3778 55.4635ZM21.3158 39.8583V46.4827C22.45 45.3772 23.9666 44.7591 25.5451 44.7591C27.1237 44.7591 28.6403 45.3772 29.7744 46.4827C30.3303 47.026 30.7723 47.6763 31.0742 48.3948C31.3759 49.1132 31.5314 49.8854 31.5314 50.6655C31.5314 51.4456 31.3759 52.2178 31.0742 52.9363C30.7723 53.6548 30.3303 54.3049 29.7744 54.8483C27.5095 57.0659 24.4749 58.3065 21.3158 58.3065C18.1567 58.3065 15.1221 57.0659 12.8572 54.8483C10.8851 52.9322 9.65393 50.3723 9.38362 47.6263C9.11331 44.8803 9.82147 42.127 11.3816 39.8583C11.8182 39.2268 12.3121 38.6375 12.8572 38.0981C15.115 35.8692 18.1538 34.6248 21.3158 34.6345V18.8306C15.7205 18.7752 10.3322 20.9589 6.33519 24.9019C2.33819 28.8448 0.059521 34.2243 0 39.8583C0.0595277 45.493 2.33789 50.8737 6.33462 54.8181C10.3313 58.7626 15.7197 60.9484 21.3158 60.8954C24.2203 60.9094 27.0973 60.3295 29.7726 59.1908C32.4479 58.0522 34.8658 56.3784 36.8797 54.271V39.8583H21.3158Z" fill="#898989"/>
</svg>

<svg width="125" height="62" fill="none" xmlns="http://www.w3.org/2000/svg"><path d="M71.993 18.85h9.868v21.008h-4.258V21.452H76.26v18.406h-4.266V18.85zm16.616 21.008h-4.257V18.85h6.691c2.989 0 3.168 2.28 3.168 3.785v6.36c0 1.476-.18 3.785-3.168 3.785H88.61v7.078zm0-9.463h.555c.45 0 .789-.398.789-1.05v-6.842c0-.654-.338-1.051-.79-1.051h-.554v8.943zm-25.554 9.463h3.533c2.99 0 3.168-2.28 3.168-3.785V31.88c0-.748 0-2.915-2.886-2.84v-.217a2.567 2.567 0 002.12-.722 2.603 2.603 0 00.766-2.117v-3.378c0-1.477-.179-3.786-3.168-3.786h-3.533c-2.98 0-3.158 2.28-3.158 3.785v2.972h4.257v-3.435a.66.66 0 01.404-.644.646.646 0 01.263-.047.675.675 0 01.628.427.7.7 0 01.05.264v4.183c0 1.287-.433 1.561-1.646 1.561H62.03v2.31h1.73c1.588 0 1.71.728 1.71 1.38v4.893a.685.685 0 01-.416.638.672.672 0 01-.26.053.643.643 0 01-.628-.425.653.653 0 01-.04-.265v-3.956h-4.23v3.605c0 1.467.18 3.738 3.158 3.738zm-15.64 0l2.218-21.008h6.702l2.218 21.008H54.38l-.395-5.583h-2.011l-.395 5.583h-4.164zm4.7-7.892h1.7l-.713-10.514h-.245l-.742 10.514zm44.173 4.145V22.607c0-1.477.188-3.786 3.167-3.786h3.534c2.979 0 3.167 2.28 3.167 3.785V36.12c0 1.467-.188 3.786-3.167 3.786h-3.534c-2.989-.048-3.177-2.319-3.177-3.786l.01-.01zm4.266.35a.67.67 0 00.183.493.646.646 0 00.485.198.671.671 0 00.619-.43.688.688 0 00.048-.261V22.143a.688.688 0 00-.409-.636.67.67 0 00-.743.142.66.66 0 00-.183.494V36.46zM43.665 21.452h3.863V18.85h-8.13v21.008h4.267V21.452zm1.532 35.156a.727.727 0 00.697-.48.742.742 0 00.046-.295v-4.41a.706.706 0 00-.213-.526.696.696 0 00-.53-.194.684.684 0 00-.685.435.695.695 0 00-.048.285v4.41a.732.732 0 00.442.719.72.72 0 00.291.056zM23.224 23.553A34.35 34.35 0 0124.38 9.717 38.355 38.355 0 0129.032.112c2.296 3.342 4 7.06 5.037 10.987a32.151 32.151 0 01.705 13.069 33.108 33.108 0 01-5.723 14.394 30.512 30.512 0 01-3.468-6.133 38.06 38.06 0 01-2.36-8.876zm7.518 6.33a15.577 15.577 0 00-1.682-6.623 14.396 14.396 0 00-1.757 6.908 15.272 15.272 0 001.729 6.965 14.674 14.674 0 001.71-7.25zm-5.77-3.35a41.458 41.458 0 01.761-8.317 35.482 35.482 0 013.28-8.849 35.362 35.362 0 013.318 8.867 34.89 34.89 0 01.714 8.224c.402-1.901.616-3.838.64-5.782a34.4 34.4 0 00-1.232-9.624 35.858 35.858 0 00-3.44-7.921 39.288 39.288 0 00-3.393 8.034 35.24 35.24 0 00-1.184 7.306 41.15 41.15 0 00.536 8.063zm94.445-7.683l-2.819 14.772-2.716-14.772h-5.546v21.008h4.267V26.685h.179l2.162 13.173h3.411l2.19-13.182h.151v13.182H125V18.85h-5.583zM39.398 46.397h85.527v14.498H39.399V46.397zM116.204 58h4.013v1.788h2.078v-3.435h-.452v-7.031h-2.124v7.05h-1.391v-7.05h-2.124V58zm-17.989-7.05h1.673V58h1.946v-7.05h1.551v-1.628h-5.17v1.627zM79.54 49.321l1.984 6.851a.445.445 0 01-.499.294 1.91 1.91 0 01-.535-.057v1.429c.332.166.7.244 1.071.227 1.485 0 1.993-.407 2.472-2.092l1.88-6.7h-2.19l-.827 3.786c-.1.595-.168 1.195-.207 1.798-.056-.947-.056-1.476-.113-1.798l-.808-3.738H79.54zM61.175 58h2.124v-3.691h1.39v3.69h2.125v-8.677H64.69v3.35h-1.391v-3.35h-2.124V58zm-18.797-2.536c0 1.731.94 2.744 2.82 2.744s2.819-1.013 2.819-2.744v-3.9c0-1.353-.855-2.46-2.82-2.46-1.964 0-2.876 1.079-2.876 2.451l.057 3.909zM21.316 39.858v6.625a6.059 6.059 0 014.23-1.724c1.578 0 3.094.618 4.228 1.724a5.833 5.833 0 011.757 4.183 5.833 5.833 0 01-1.757 4.183 12.09 12.09 0 01-8.458 3.458 12.09 12.09 0 01-8.459-3.459 11.691 11.691 0 01-1.476-14.99 12.48 12.48 0 011.476-1.76 11.987 11.987 0 018.459-3.463V18.83a21.034 21.034 0 00-14.98 6.07A21.326 21.326 0 000 39.859a21.336 21.336 0 006.335 14.96 21.042 21.042 0 0014.98 6.077 21.329 21.329 0 008.458-1.704 21.452 21.452 0 007.107-4.92V39.858H21.316z" fill="#898989"/></svg>
